X: 25837
T: Master McDermott's
R: reel
M: 4/4
K: Dmajor
DF ~F2 DFAB|dffe d2 Bd|AF ~F2 DF ~F2|B2 AF EAFE|
DF ~F2 DFAB|dffe d2 Bd|AF ~F2 B2 AF|1 EAFE D4:|2 EAFE D2 AB||
df ~f2 d2 af|~g3 b affe|d2 BA FAde|~f3 a ef d2|
faaf g2 gb|affe d2 Bd|AF ~F2 BFAF|1 EAFE D2 AB:|2 EAFE D4||

